icons/rocket.svg

<?xml version="1.0" standalone="no"?><!-- Generator: Gravit.io --><svg xmlns="http://www.w3.org/2000/svg" xmlns:xlink="http://www.w3.org/1999/xlink" width="96" height="96"><path d=" M 6.38575879627961 50.09457014765154 L 20.192019845433066 36.288309098498075 C 22.72786371160411 33.75246523232703 26.181259246783235 32.27505324995135 29.847543909478226 32.27845232817704 L 33.09079572647762 32.28145920506901 C 34.641916160694734 32.28289727662603 36.051502711235 31.720160820144386 37.1081043221396 30.66355920923978 L 59.648938688104444 8.122724843274945 C 62.184782554275486 5.586880977103899 65.63817808945461 4.109468994728218 69.30446275214959 4.112868072953912 L 83.82859045436433 4.1263336520787846 C 83.82859045436433 4.1263336520787846 83.82859045436433 4.1263336520787846 83.82859045436433 4.1263336520787846 C 85.94375468284221 4.128294658747457 87.9892632065939 5.0467614642009195 89.47125087119649 6.528749128803504 C 90.95323853579907 8.010736793406085 91.87170534125254 10.056245317157792 91.87366634792122 12.171409545635662 C 91.87366634792122 12.171409545635662 91.87366634792122 12.171409545635662 91.87366634792122 12.171409545635662 L 91.88713192704608 26.695537247850396 C 91.89053100527178 30.361821910545387 90.4131190228961 33.815217445724514 87.87727515672506 36.351061311895556 L 65.33644079076022 58.89189567786039 C 64.27983917985563 59.948497288765 63.71710272337397 61.35808383930525 63.718540794930995 62.90920427352238 L 63.72154767182296 66.15245609052177 C 63.72494675004865 69.81874075321676 62.24753476767297 73.27213628839588 59.711690901501925 75.80798015456692 L 45.90542985234847 89.6142412037204 C 44.14495010261911 91.93928768282217 40.972792061902894 92.57089544136252 38.50372775734397 91.08799264031455 C 37.58669902344754 90.59360455077997 36.95143071912566 89.8174560316708 36.66849368554991 88.83011792415864 L 35.95245730537938 76.98454457579298 C 35.95101923382236 75.43342414157587 35.38566810178247 74.02279172081232 34.3271054842092 72.96422910323905 L 23.03577089676096 61.6728945157908 C 21.977208279187685 60.61433189821753 20.566575858424123 60.04898076617765 19.015455424207012 60.04754269462062 L 7.169882075841372 59.331506314450095 C 6.182543968329192 59.04856928087433 5.406395449220042 58.41330097655246 4.91200735968544 57.49627224265603 C 3.4291045586374835 55.02720793809712 4.060712317177838 51.855049897380894 6.38575879627961 50.09457014765154 Z  M 15.764751781866657 52.00691174951274 L 25.83768713915719 41.9339763922222 C 26.89428875006179 40.8773747813176 28.303875300602066 40.31463832483594 29.85499573481917 40.31607639639297 L 33.098247551818574 40.31908327328493 C 36.76453221451356 40.32248235151063 40.217927749692684 38.845070369134945 42.75377161586373 36.309226502963895 L 65.29460598182857 13.768392136999068 C 66.35120759273316 12.711790526094461 67.76079414327344 12.149054069612816 69.31191457749054 12.150492141169835 L 83.83604227970528 12.163957720294711 L 83.84950785883015 26.688085422509452 C 83.85094593038718 28.239205856726556 83.28820947390554 29.648792407266832 82.23160786300093 30.705394018171432 L 59.6907734970361 53.24622838413627 C 57.154929630865055 55.78207225030731 55.67751764848937 59.23546778548645 55.68091672671507 62.901752448181426 L 55.68392360360703 66.14500426518082 C 55.68536167516406 67.69612469939794 55.12262521868241 69.10571124993821 54.06602360777781 70.16231286084282 L 43.993088250487276 80.23524821813335 L 43.99008137359531 76.99199640113393 C 43.986682295369604 73.32571173843895 42.50286435787627 69.8695707939237 39.96231407570041 67.32902051174783 L 28.67097948825217 56.037685924299595 C 26.130429206076307 53.49713564212374 22.67428826156104 52.013317704630396 19.00800359886607 52.0099186264047 L 15.764751781866657 52.00691174951274 Z  M 68.12266897980707 22.2316637264688 C 69.67774713781992 20.67658556845596 72.20514260692619 20.678928762096696 73.76310692241475 22.236893077585258 C 75.3210712379033 23.794857393073816 75.32341443154404 26.32225286218008 73.7683362735312 27.87733102019292 C 72.21325811551836 29.432409178205763 69.68586264641209 29.430065984565026 68.12789833092353 27.872101669076468 C 66.56993401543498 26.314137353587906 66.56759082179424 23.786741884481643 68.12266897980707 22.2316637264688 Z " fill-rule="evenodd" fill="#454545" stroke="none"/><mask id="_mask_XnAEDmJpQ5jCrTcNC3thLOiNaQAToyPR"><path d=" M 6.38575879627961 50.09457014765154 L 20.192019845433066 36.288309098498075 C 22.72786371160411 33.75246523232703 26.181259246783235 32.27505324995135 29.847543909478226 32.27845232817704 L 33.09079572647762 32.28145920506901 C 34.641916160694734 32.28289727662603 36.051502711235 31.720160820144386 37.1081043221396 30.66355920923978 L 59.648938688104444 8.122724843274945 C 62.184782554275486 5.586880977103899 65.63817808945461 4.109468994728218 69.30446275214959 4.112868072953912 L 83.82859045436433 4.1263336520787846 C 83.82859045436433 4.1263336520787846 83.82859045436433 4.1263336520787846 83.82859045436433 4.1263336520787846 C 85.94375468284221 4.128294658747457 87.9892632065939 5.0467614642009195 89.47125087119649 6.528749128803504 C 90.95323853579907 8.010736793406085 91.87170534125254 10.056245317157792 91.87366634792122 12.171409545635662 C 91.87366634792122 12.171409545635662 91.87366634792122 12.171409545635662 91.87366634792122 12.171409545635662 L 91.88713192704608 26.695537247850396 C 91.89053100527178 30.361821910545387 90.4131190228961 33.815217445724514 87.87727515672506 36.351061311895556 L 65.33644079076022 58.89189567786039 C 64.27983917985563 59.948497288765 63.71710272337397 61.35808383930525 63.718540794930995 62.90920427352238 L 63.72154767182296 66.15245609052177 C 63.72494675004865 69.81874075321676 62.24753476767297 73.27213628839588 59.711690901501925 75.80798015456692 L 45.90542985234847 89.6142412037204 C 44.14495010261911 91.93928768282217 40.972792061902894 92.57089544136252 38.50372775734397 91.08799264031455 C 37.58669902344754 90.59360455077997 36.95143071912566 89.8174560316708 36.66849368554991 88.83011792415864 L 35.95245730537938 76.98454457579298 C 35.95101923382236 75.43342414157587 35.38566810178247 74.02279172081232 34.3271054842092 72.96422910323905 L 23.03577089676096 61.6728945157908 C 21.977208279187685 60.61433189821753 20.566575858424123 60.04898076617765 19.015455424207012 60.04754269462062 L 7.169882075841372 59.331506314450095 C 6.182543968329192 59.04856928087433 5.406395449220042 58.41330097655246 4.91200735968544 57.49627224265603 C 3.4291045586374835 55.02720793809712 4.060712317177838 51.855049897380894 6.38575879627961 50.09457014765154 Z  M 15.764751781866657 52.00691174951274 L 25.83768713915719 41.9339763922222 C 26.89428875006179 40.8773747813176 28.303875300602066 40.31463832483594 29.85499573481917 40.31607639639297 L 33.098247551818574 40.31908327328493 C 36.76453221451356 40.32248235151063 40.217927749692684 38.845070369134945 42.75377161586373 36.309226502963895 L 65.29460598182857 13.768392136999068 C 66.35120759273316 12.711790526094461 67.76079414327344 12.149054069612816 69.31191457749054 12.150492141169835 L 83.83604227970528 12.163957720294711 L 83.84950785883015 26.688085422509452 C 83.85094593038718 28.239205856726556 83.28820947390554 29.648792407266832 82.23160786300093 30.705394018171432 L 59.6907734970361 53.24622838413627 C 57.154929630865055 55.78207225030731 55.67751764848937 59.23546778548645 55.68091672671507 62.901752448181426 L 55.68392360360703 66.14500426518082 C 55.68536167516406 67.69612469939794 55.12262521868241 69.10571124993821 54.06602360777781 70.16231286084282 L 43.993088250487276 80.23524821813335 L 43.99008137359531 76.99199640113393 C 43.986682295369604 73.32571173843895 42.50286435787627 69.8695707939237 39.96231407570041 67.32902051174783 L 28.67097948825217 56.037685924299595 C 26.130429206076307 53.49713564212374 22.67428826156104 52.013317704630396 19.00800359886607 52.0099186264047 L 15.764751781866657 52.00691174951274 Z  M 68.12266897980707 22.2316637264688 C 69.67774713781992 20.67658556845596 72.20514260692619 20.678928762096696 73.76310692241475 22.236893077585258 C 75.3210712379033 23.794857393073816 75.32341443154404 26.32225286218008 73.7683362735312 27.87733102019292 C 72.21325811551836 29.432409178205763 69.68586264641209 29.430065984565026 68.12789833092353 27.872101669076468 C 66.56993401543498 26.314137353587906 66.56759082179424 23.786741884481643 68.12266897980707 22.2316637264688 Z " fill-rule="evenodd" fill="white" stroke="none"/></mask><path d=" M 6.38575879627961 50.09457014765154 L 20.192019845433066 36.288309098498075 C 22.72786371160411 33.75246523232703 26.181259246783235 32.27505324995135 29.847543909478226 32.27845232817704 L 33.09079572647762 32.28145920506901 C 34.641916160694734 32.28289727662603 36.051502711235 31.720160820144386 37.1081043221396 30.66355920923978 L 59.648938688104444 8.122724843274945 C 62.184782554275486 5.586880977103899 65.63817808945461 4.109468994728218 69.30446275214959 4.112868072953912 L 83.82859045436433 4.1263336520787846 C 83.82859045436433 4.1263336520787846 83.82859045436433 4.1263336520787846 83.82859045436433 4.1263336520787846 C 85.94375468284221 4.128294658747457 87.9892632065939 5.0467614642009195 89.47125087119649 6.528749128803504 C 90.95323853579907 8.010736793406085 91.87170534125254 10.056245317157792 91.87366634792122 12.171409545635662 C 91.87366634792122 12.171409545635662 91.87366634792122 12.171409545635662 91.87366634792122 12.171409545635662 L 91.88713192704608 26.695537247850396 C 91.89053100527178 30.361821910545387 90.4131190228961 33.815217445724514 87.87727515672506 36.351061311895556 L 65.33644079076022 58.89189567786039 C 64.27983917985563 59.948497288765 63.71710272337397 61.35808383930525 63.718540794930995 62.90920427352238 L 63.72154767182296 66.15245609052177 C 63.72494675004865 69.81874075321676 62.24753476767297 73.27213628839588 59.711690901501925 75.80798015456692 L 45.90542985234847 89.6142412037204 C 44.14495010261911 91.93928768282217 40.972792061902894 92.57089544136252 38.50372775734397 91.08799264031455 C 37.58669902344754 90.59360455077997 36.95143071912566 89.8174560316708 36.66849368554991 88.83011792415864 L 35.95245730537938 76.98454457579298 C 35.95101923382236 75.43342414157587 35.38566810178247 74.02279172081232 34.3271054842092 72.96422910323905 L 23.03577089676096 61.6728945157908 C 21.977208279187685 60.61433189821753 20.566575858424123 60.04898076617765 19.015455424207012 60.04754269462062 L 7.169882075841372 59.331506314450095 C 6.182543968329192 59.04856928087433 5.406395449220042 58.41330097655246 4.91200735968544 57.49627224265603 C 3.4291045586374835 55.02720793809712 4.060712317177838 51.855049897380894 6.38575879627961 50.09457014765154 Z  M 15.764751781866657 52.00691174951274 L 25.83768713915719 41.9339763922222 C 26.89428875006179 40.8773747813176 28.303875300602066 40.31463832483594 29.85499573481917 40.31607639639297 L 33.098247551818574 40.31908327328493 C 36.76453221451356 40.32248235151063 40.217927749692684 38.845070369134945 42.75377161586373 36.309226502963895 L 65.29460598182857 13.768392136999068 C 66.35120759273316 12.711790526094461 67.76079414327344 12.149054069612816 69.31191457749054 12.150492141169835 L 83.83604227970528 12.163957720294711 L 83.84950785883015 26.688085422509452 C 83.85094593038718 28.239205856726556 83.28820947390554 29.648792407266832 82.23160786300093 30.705394018171432 L 59.6907734970361 53.24622838413627 C 57.154929630865055 55.78207225030731 55.67751764848937 59.23546778548645 55.68091672671507 62.901752448181426 L 55.68392360360703 66.14500426518082 C 55.68536167516406 67.69612469939794 55.12262521868241 69.10571124993821 54.06602360777781 70.16231286084282 L 43.993088250487276 80.23524821813335 L 43.99008137359531 76.99199640113393 C 43.986682295369604 73.32571173843895 42.50286435787627 69.8695707939237 39.96231407570041 67.32902051174783 L 28.67097948825217 56.037685924299595 C 26.130429206076307 53.49713564212374 22.67428826156104 52.013317704630396 19.00800359886607 52.0099186264047 L 15.764751781866657 52.00691174951274 Z  M 68.12266897980707 22.2316637264688 C 69.67774713781992 20.67658556845596 72.20514260692619 20.678928762096696 73.76310692241475 22.236893077585258 C 75.3210712379033 23.794857393073816 75.32341443154404 26.32225286218008 73.7683362735312 27.87733102019292 C 72.21325811551836 29.432409178205763 69.68586264641209 29.430065984565026 68.12789833092353 27.872101669076468 C 66.56993401543498 26.314137353587906 66.56759082179424 23.786741884481643 68.12266897980707 22.2316637264688 Z " fill-rule="evenodd" fill="none" stroke="none" stroke-width="16" mask="url(#_mask_XnAEDmJpQ5jCrTcNC3thLOiNaQAToyPR)"/></svg>

<svg xmlns="http://www.w3.org/2000/svg" width="96" height="96"><path d="M6.386 50.095l13.806-13.807a13.634 13.634 0 0 1 9.656-4.01l3.243.003c1.55.002 2.96-.56 4.017-1.617l22.54-22.541a13.634 13.634 0 0 1 9.656-4.01l14.525.013c2.115.002 4.16.92 5.642 2.403 1.482 1.482 2.4 3.527 2.403 5.642l.013 14.525a13.634 13.634 0 0 1-4.01 9.655l-22.54 22.54c-1.057 1.057-1.62 2.467-1.618 4.018l.003 3.243a13.634 13.634 0 0 1-4.01 9.656L45.905 89.614c-1.76 2.325-4.932 2.957-7.401 1.474-.917-.494-1.553-1.27-1.836-2.258l-.716-11.845c-.001-1.552-.566-2.962-1.625-4.02L23.036 61.672c-1.059-1.059-2.47-1.624-4.02-1.625L7.17 59.332c-.987-.283-1.764-.919-2.258-1.836-1.483-2.469-.851-5.641 1.474-7.401zm9.379 1.912l10.073-10.073c1.056-1.057 2.466-1.62 4.017-1.618l3.243.003a13.634 13.634 0 0 0 9.656-4.01l22.54-22.54c1.057-1.057 2.467-1.62 4.018-1.619l14.524.014.014 14.524c0 1.551-.562 2.96-1.618 4.017L59.69 53.246a13.634 13.634 0 0 0-4.01 9.656l.003 3.243c.001 1.551-.561 2.96-1.618 4.017L43.993 80.235l-.003-3.243a13.685 13.685 0 0 0-4.028-9.663L28.671 56.038a13.685 13.685 0 0 0-9.663-4.028l-3.243-.003zm52.358-29.775a3.99 3.99 0 0 1 5.64.005 3.99 3.99 0 0 1 .005 5.64 3.99 3.99 0 0 1-5.64-.005 3.99 3.99 0 0 1-.005-5.64z" fill-rule="evenodd" fill="#454545"/></svg>
